X:193
T:Scarce O'Tatties
R:jig
C:Norman MacLean (1936-2017), Scotland
D:Silly Wizard: Live Wizardry
Z:id:hn-jig-193
M:6/8
K:Amix
~A3 efg|edB dBA|Aee efg|edB Ace|~a3 gag|fgf edB|Aee efg|1 edB A2G:|2 edB ~A3||
aeg a2e|g2f eAA|aeg a2e|g2f ~e3|efe ~A3|dff fee|Aee efg|1 edB ~A3:|2 edB A2G||

